static/images/clients/logo-netil-cell.svg

<svg width="256" height="166" viewBox="0 0 256 166" fill="none" xmlns="http://www.w3.org/2000/svg">
<rect opacity="0.1" width="256" height="166" fill="#95BCD1"/>
<path d="M106.199 78.3352C105.388 78.3352 104.969 78.8454 104.825 79.6425H107.465C107.387 78.8454 106.891 78.3352 106.199 78.3352Z" fill="#111111"/>
<path d="M113.245 90.1777C112.376 90.1777 111.866 90.9803 111.866 92.1303C111.866 93.3217 112.374 94.0691 113.218 94.0691C114.128 94.0691 114.663 93.2804 114.663 92.1551C114.663 91.0079 114.194 90.1777 113.245 90.1777Z" fill="#111111"/>
<path d="M98.0905 87.8887H96.2565V90.2439H98.0354C98.9731 90.2439 99.4529 89.8027 99.4529 89.0801C99.4529 88.3851 99.0006 87.8887 98.0905 87.8887Z" fill="#111111"/>
<path d="M104.511 93.6029C104.511 94.1517 104.914 94.3641 105.449 94.3641C106.265 94.3641 106.828 93.8704 106.828 93.1341V92.3177C106.546 92.4639 106.146 92.5715 105.705 92.679C104.858 92.8666 104.511 93.0789 104.511 93.6029Z" fill="#111111"/>
<path d="M124.401 90.084C123.452 90.084 122.956 90.9279 122.956 92.1717C122.956 93.4155 123.449 94.2457 124.401 94.2457C125.35 94.2457 125.86 93.4155 125.86 92.1717C125.86 90.9251 125.352 90.084 124.401 90.084Z" fill="#111111"/>
<path d="M128 47C107.567 47 91 63.5667 91 84C91 104.433 107.567 121 128 121C148.433 121 165 104.433 165 84C165 63.5667 148.433 47 128 47ZM109.845 77.017H110.733V74.8989H112.812V77.017H114.028V78.3491H112.812V81.4848C112.812 82.0088 113.099 82.1384 113.557 82.1384C113.739 82.1384 113.948 82.1246 114.028 82.1246V83.6801C113.846 83.7325 113.441 83.7849 112.865 83.7849C111.624 83.7849 110.733 83.3795 110.733 81.9426V78.3491H109.845V77.017ZM93.8737 74.3639H96.2014L98.9731 79.0551C99.1165 79.3171 99.6129 80.2437 99.6129 80.2437H99.6405C99.6405 80.2437 99.6129 79.1185 99.6129 78.7931V74.3639H101.874V83.7104H99.5467L96.8026 79.0827C96.6454 78.8345 96.1352 77.8278 96.1352 77.8278H96.1104C96.1104 77.8278 96.1352 79.0303 96.1352 79.3557V83.7077H93.8737V74.3639V74.3639ZM101.943 95.5804H99.6433C99.3895 95.4343 99.4281 94.309 99.282 93.3603C99.1606 92.4778 98.7056 91.9952 97.6907 91.9952H96.2593V95.5804H93.8903V86.016H98.4656C100.366 86.016 101.811 86.9923 101.811 88.7712C101.811 89.8826 101.262 90.6989 100.153 91.085V91.1264C100.984 91.4077 101.411 91.929 101.543 92.8777C101.745 94.1353 101.61 95.3377 101.946 95.4591V95.5804H101.943ZM109.153 95.5804H107.04C106.932 95.4343 106.866 95.1667 106.814 94.8192H106.786C106.384 95.3956 105.782 95.7569 104.754 95.7569C103.388 95.7569 102.412 95.0206 102.412 93.6692C102.412 92.1579 103.617 91.7028 105.035 91.5153C106.32 91.3553 106.775 91.2202 106.775 90.7513C106.775 90.3101 106.494 90.015 105.838 90.015C105.143 90.015 104.795 90.3239 104.726 90.8975H102.718C102.771 89.6261 103.75 88.5423 105.821 88.5423C106.85 88.5423 107.547 88.7298 108.041 89.1049C108.629 89.5323 108.91 90.2025 108.91 91.0575V94.5076C108.91 95.0564 108.962 95.3626 109.15 95.4839V95.5804H109.153ZM106.317 82.3756C106.88 82.3756 107.247 82.1274 107.429 81.7082H109.508C109.365 82.3094 108.973 82.8858 108.383 83.2885C107.82 83.6801 107.142 83.9035 106.293 83.9035C104.083 83.9035 102.724 82.3756 102.724 80.3485C102.724 78.3491 104.122 76.8184 106.16 76.8184C107.114 76.8184 107.873 77.1328 108.446 77.6541C109.244 78.3849 109.635 79.5487 109.624 80.9084H104.814C104.944 81.813 105.44 82.3756 106.317 82.3756ZM116.789 95.5804H114.701V94.6565H114.674C114.26 95.3653 113.551 95.7928 112.655 95.7928C110.904 95.7928 109.657 94.4414 109.657 92.1551C109.657 90.015 110.887 88.5285 112.655 88.5285C113.618 88.5285 114.166 88.9311 114.569 89.5048H114.61V86.0133H116.792V95.5804H116.789ZM116.93 83.7077H114.798V77.0142H116.93V83.7077ZM116.93 76.0876H114.798V74.3611H116.93V76.0876ZM120.013 95.5804H117.834V88.7298H120.016V95.5804H120.013ZM120.013 87.7838H117.834V86.0188H120.016V87.7838H120.013ZM120.118 83.7077H117.961V74.3639H120.118V83.7077V83.7077ZM124.415 95.7955C122.219 95.7955 120.749 94.2291 120.749 92.1689C120.749 90.1087 122.222 88.5423 124.415 88.5423C126.621 88.5423 128.066 90.1087 128.066 92.1689C128.066 94.2318 126.621 95.7955 124.415 95.7955Z" fill="#111111"/>
</svg>

<svg xmlns="http://www.w3.org/2000/svg" fill="none" viewBox="0 0 256 166">
  <path fill="#95BCD1" d="M0 0h256v166H0z" opacity=".1"/>
  <path fill="#111" d="M106.2 78.34c-.81 0-1.23.5-1.38 1.3h2.65c-.08-.8-.58-1.3-1.27-1.3zM113.25 90.18c-.87 0-1.38.8-1.38 1.95 0 1.2.5 1.94 1.35 1.94.9 0 1.44-.79 1.44-1.91 0-1.15-.47-1.98-1.41-1.98zM98.1 87.89h-1.84v2.35h1.78c.93 0 1.41-.44 1.41-1.16 0-.7-.45-1.2-1.36-1.2zM104.51 93.6c0 .55.4.76.94.76.81 0 1.38-.49 1.38-1.23v-.81a5.4 5.4 0 01-1.13.36c-.84.19-1.19.4-1.19.92zM124.4 90.08c-.95 0-1.44.85-1.44 2.1 0 1.24.49 2.07 1.44 2.07s1.46-.83 1.46-2.08c0-1.24-.5-2.09-1.46-2.09z"/>
  <path fill="#111" d="M128 47a37 37 0 100 74 37 37 0 000-74zm-18.16 30.02h.9V74.9h2.07v2.12h1.22v1.33h-1.22v3.13c0 .53.29.66.75.66l.47-.02v1.56c-.18.05-.59.1-1.17.1-1.24 0-2.13-.4-2.13-1.84v-3.6h-.89v-1.32zm-15.97-2.66h2.33l2.77 4.7.64 1.18h.03l-.03-1.45v-4.43h2.26v9.35h-2.32l-2.75-4.63c-.15-.25-.66-1.25-.66-1.25h-.03l.03 1.53v4.35h-2.27v-9.35zm8.07 21.22h-2.3c-.25-.15-.21-1.27-.36-2.22-.12-.88-.57-1.36-1.59-1.36h-1.43v3.58h-2.37v-9.56h4.58c1.9 0 3.34.97 3.34 2.75 0 1.11-.55 1.93-1.66 2.31v.05c.83.28 1.26.8 1.4 1.75.2 1.26.06 2.46.4 2.58v.12zm7.21 0h-2.11c-.1-.15-.17-.41-.23-.76h-.02c-.4.58-1 .94-2.04.94-1.36 0-2.34-.74-2.34-2.1 0-1.5 1.2-1.96 2.63-2.14 1.28-.16 1.73-.3 1.73-.77 0-.44-.28-.73-.93-.73-.7 0-1.05.3-1.11.88h-2.01c.05-1.27 1.03-2.36 3.1-2.36 1.03 0 1.73.19 2.22.56.59.43.87 1.1.87 1.96v3.45c0 .55.05.85.24.97v.1zm-2.83-13.2c.56 0 .93-.25 1.1-.67h2.09a2.7 2.7 0 01-1.13 1.58c-.56.39-1.24.61-2.09.61a3.38 3.38 0 01-3.57-3.55c0-2 1.4-3.53 3.44-3.53.95 0 1.71.31 2.29.83.8.73 1.19 1.9 1.17 3.26h-4.8c.12.9.62 1.47 1.5 1.47zm10.47 13.2h-2.09v-.92h-.03a2.25 2.25 0 01-2.02 1.13c-1.75 0-3-1.35-3-3.63 0-2.14 1.24-3.63 3-3.63.97 0 1.52.4 1.92.97h.04v-3.49h2.18v9.57zm.14-11.87h-2.13V77h2.13v6.7zm0-7.62h-2.13v-1.73h2.13v1.73zm3.08 19.49h-2.18v-6.85h2.19v6.85zm0-7.8h-2.18v-1.76h2.19v1.76zm.1-4.07h-2.15v-9.35h2.16v9.35zm4.3 12.09a3.5 3.5 0 01-3.66-3.63 3.51 3.51 0 013.67-3.63 3.5 3.5 0 013.65 3.63 3.49 3.49 0 01-3.65 3.63z"/>
</svg>
